public/sprites/common.svg

<svg width="0" height="0" class="hidden"><symbol viewBox="0 0 24 24" fill="none" xmlns="http://www.w3.org/2000/svg" id="arrow-left"><g id="arrow-left"><path id="Icon" d="M19 12H5M5 12L12 19M5 12L12 5" stroke="currentColor" stroke-width="2" stroke-linecap="round" stroke-linejoin="round"></path></g></symbol><symbol viewBox="0 0 24 24" fill="none" xmlns="http://www.w3.org/2000/svg" id="attachment"><g id="attachment-02"><path id="Icon" d="M17.5 5.25581V16.5C17.5 19.5376 15.0376 22 12 22C8.96243 22 6.5 19.5376 6.5 16.5V5.66667C6.5 3.64162 8.14162 2 10.1667 2C12.1917 2 13.8333 3.64162 13.8333 5.66667V16.4457C13.8333 17.4583 13.0125 18.2791 12 18.2791C10.9875 18.2791 10.1667 17.4583 10.1667 16.4457V6.65116" stroke="currentColor" stroke-width="2" stroke-linecap="round" stroke-linejoin="round"></path></g></symbol><symbol viewBox="0 0 24 24" fill="none" xmlns="http://www.w3.org/2000/svg" id="clock"><g id="clock"><path id="Icon" d="M12 6V12L16 14M22 12C22 17.5228 17.5228 22 12 22C6.47715 22 2 17.5228 2 12C2 6.47715 6.47715 2 12 2C17.5228 2 22 6.47715 22 12Z" stroke="currentColor" stroke-width="2" stroke-linecap="round" stroke-linejoin="round"></path></g></symbol><symbol viewBox="0 0 24 24" fill="none" xmlns="http://www.w3.org/2000/svg" id="dots-vertical"><g id="dots-vertical"><g id="Icon"><path d="M12 13C12.5523 13 13 12.5523 13 12C13 11.4477 12.5523 11 12 11C11.4477 11 11 11.4477 11 12C11 12.5523 11.4477 13 12 13Z" stroke="currentColor" stroke-width="2" stroke-linecap="round" stroke-linejoin="round"></path><path d="M12 6C12.5523 6 13 5.55228 13 5C13 4.44772 12.5523 4 12 4C11.4477 4 11 4.44772 11 5C11 5.55228 11.4477 6 12 6Z" stroke="currentColor" stroke-width="2" stroke-linecap="round" stroke-linejoin="round"></path><path d="M12 20C12.5523 20 13 19.5523 13 19C13 18.4477 12.5523 18 12 18C11.4477 18 11 18.4477 11 19C11 19.5523 11.4477 20 12 20Z" stroke="currentColor" stroke-width="2" stroke-linecap="round" stroke-linejoin="round"></path></g></g></symbol><symbol viewBox="0 0 24 24" fill="none" xmlns="http://www.w3.org/2000/svg" id="folder-shield"><g id="folder-shield"><path id="Icon" d="M13 7L11.8845 4.76892C11.5634 4.1268 11.4029 3.80573 11.1634 3.57116C10.9516 3.36373 10.6963 3.20597 10.4161 3.10931C10.0992 3 9.74021 3 9.02229 3H5.2C4.0799 3 3.51984 3 3.09202 3.21799C2.71569 3.40973 2.40973 3.71569 2.21799 4.09202C2 4.51984 2 5.0799 2 6.2V7M2 7H17.2C18.8802 7 19.7202 7 20.362 7.32698C20.9265 7.6146 21.3854 8.07354 21.673 8.63803C22 9.27976 22 10.1198 22 11.8V16.2C22 17.8802 22 18.7202 21.673 19.362C21.3854 19.9265 20.9265 20.3854 20.362 20.673C19.7202 21 18.8802 21 17.2 21H6.8C5.11984 21 4.27976 21 3.63803 20.673C3.07354 20.3854 2.6146 19.9265 2.32698 19.362C2 18.7202 2 17.8802 2 16.2V7ZM12 17.5C12 17.5 15 16.0701 15 13.9252V11.4229L12.8124 10.6412C12.2868 10.4529 11.712 10.4529 11.1864 10.6412L9 11.4229V13.9252C9 16.0701 12 17.5 12 17.5Z" stroke="currentColor" stroke-width="2" stroke-linecap="round" stroke-linejoin="round"></path></g></symbol><symbol viewBox="0 0 24 24" fill="none" xmlns="http://www.w3.org/2000/svg" id="layers-two"><g id="layers-two-01"><path id="Icon" d="M2 14.5001L11.6422 19.3212C11.7734 19.3868 11.839 19.4196 11.9078 19.4325C11.9687 19.4439 12.0313 19.4439 12.0922 19.4325C12.161 19.4196 12.2266 19.3868 12.3578 19.3212L22 14.5001M2 9.50006L11.6422 4.67895C11.7734 4.61336 11.839 4.58056 11.9078 4.56766C11.9687 4.55622 12.0313 4.55622 12.0922 4.56766C12.161 4.58056 12.2266 4.61336 12.3578 4.67895L22 9.50006L12.3578 14.3212C12.2266 14.3868 12.161 14.4196 12.0922 14.4325C12.0313 14.4439 11.9687 14.4439 11.9078 14.4325C11.839 14.4196 11.7734 14.3868 11.6422 14.3212L2 9.50006Z" stroke="currentColor" stroke-width="2" stroke-linecap="round" stroke-linejoin="round"></path></g></symbol><symbol viewBox="0 0 24 24" fill="none" xmlns="http://www.w3.org/2000/svg" id="log-out"><g id="log-out-01"><path id="Icon" d="M16 17L21 12M21 12L16 7M21 12H9M9 3H7.8C6.11984 3 5.27976 3 4.63803 3.32698C4.07354 3.6146 3.6146 4.07354 3.32698 4.63803C3 5.27976 3 6.11984 3 7.8V16.2C3 17.8802 3 18.7202 3.32698 19.362C3.6146 19.9265 4.07354 20.3854 4.63803 20.673C5.27976 21 6.11984 21 7.8 21H9" stroke="currentColor" stroke-width="2" stroke-linecap="round" stroke-linejoin="round"></path></g></symbol><symbol viewBox="0 0 24 24" fill="none" xmlns="http://www.w3.org/2000/svg" id="mail"><g id="mail-01"><path id="Icon" d="M2 7L10.1649 12.7154C10.8261 13.1783 11.1567 13.4097 11.5163 13.4993C11.8339 13.5785 12.1661 13.5785 12.4837 13.4993C12.8433 13.4097 13.1739 13.1783 13.8351 12.7154L22 7M6.8 20H17.2C18.8802 20 19.7202 20 20.362 19.673C20.9265 19.3854 21.3854 18.9265 21.673 18.362C22 17.7202 22 16.8802 22 15.2V8.8C22 7.11984 22 6.27976 21.673 5.63803C21.3854 5.07354 20.9265 4.6146 20.362 4.32698C19.7202 4 18.8802 4 17.2 4H6.8C5.11984 4 4.27976 4 3.63803 4.32698C3.07354 4.6146 2.6146 5.07354 2.32698 5.63803C2 6.27976 2 7.11984 2 8.8V15.2C2 16.8802 2 17.7202 2.32698 18.362C2.6146 18.9265 3.07354 19.3854 3.63803 19.673C4.27976 20 5.11984 20 6.8 20Z" stroke="currentColor" stroke-width="2" stroke-linecap="round" stroke-linejoin="round"></path></g></symbol><symbol viewBox="0 0 24 24" fill="none" xmlns="http://www.w3.org/2000/svg" id="menu"><g id="menu-02"><path id="Icon" d="M3 12H15M3 6H21M3 18H21" stroke="currentColor" stroke-width="2" stroke-linecap="round" stroke-linejoin="round"></path></g></symbol><symbol viewBox="0 0 24 24" fill="none" xmlns="http://www.w3.org/2000/svg" id="plus-circle"><g id="plus-circle"><path id="Icon" d="M12 8V16M8 12H16M22 12C22 17.5228 17.5228 22 12 22C6.47715 22 2 17.5228 2 12C2 6.47715 6.47715 2 12 2C17.5228 2 22 6.47715 22 12Z" stroke="currentColor" stroke-width="2" stroke-linecap="round" stroke-linejoin="round"></path></g></symbol><symbol viewBox="0 0 24 24" fill="none" xmlns="http://www.w3.org/2000/svg" id="plus-square"><g id="plus-square"><path id="Icon" d="M12 8V16M8 12H16M7.8 21H16.2C17.8802 21 18.7202 21 19.362 20.673C19.9265 20.3854 20.3854 19.9265 20.673 19.362C21 18.7202 21 17.8802 21 16.2V7.8C21 6.11984 21 5.27976 20.673 4.63803C20.3854 4.07354 19.9265 3.6146 19.362 3.32698C18.7202 3 17.8802 3 16.2 3H7.8C6.11984 3 5.27976 3 4.63803 3.32698C4.07354 3.6146 3.6146 4.07354 3.32698 4.63803C3 5.27976 3 6.11984 3 7.8V16.2C3 17.8802 3 18.7202 3.32698 19.362C3.6146 19.9265 4.07354 20.3854 4.63803 20.673C5.27976 21 6.11984 21 7.8 21Z" stroke="currentColor" stroke-width="2" stroke-linecap="round" stroke-linejoin="round"></path></g></symbol><symbol viewBox="0 0 24 24" fill="none" xmlns="http://www.w3.org/2000/svg" id="plus"><g id="plus"><path id="Icon" d="M12 5V19M5 12H19" stroke="currentColor" stroke-width="2" stroke-linecap="round" stroke-linejoin="round"></path></g></symbol><symbol viewBox="0 0 24 24" fill="none" xmlns="http://www.w3.org/2000/svg" id="search-lg"><g id="search-lg"><path id="Icon" d="M21 21L17.5001 17.5M20 11.5C20 16.1944 16.1944 20 11.5 20C6.80558 20 3 16.1944 3 11.5C3 6.80558 6.80558 3 11.5 3C16.1944 3 20 6.80558 20 11.5Z" stroke="currentColor" stroke-width="2" stroke-linecap="round" stroke-linejoin="round"></path></g></symbol><symbol viewBox="0 0 24 24" fill="none" xmlns="http://www.w3.org/2000/svg" id="search"><path d="M21 21L15.0001 15M17 10C17 13.866 13.866 17 10 17C6.13401 17 3 13.866 3 10C3 6.13401 6.13401 3 10 3C13.866 3 17 6.13401 17 10Z" stroke="currentColor" stroke-width="2" stroke-linecap="round" stroke-linejoin="round"></path></symbol><symbol viewBox="0 0 24 24" fill="none" xmlns="http://www.w3.org/2000/svg" id="settings"><g id="settings-02"><g id="Icon"><path d="M9.3951 19.3711L9.97955 20.6856C10.1533 21.0768 10.4368 21.4093 10.7958 21.6426C11.1547 21.8759 11.5737 22.0001 12.0018 22C12.4299 22.0001 12.8488 21.8759 13.2078 21.6426C13.5667 21.4093 13.8503 21.0768 14.024 20.6856L14.6084 19.3711C14.8165 18.9047 15.1664 18.5159 15.6084 18.26C16.0532 18.0034 16.5678 17.8941 17.0784 17.9478L18.5084 18.1C18.9341 18.145 19.3637 18.0656 19.7451 17.8713C20.1265 17.6771 20.4434 17.3763 20.6573 17.0056C20.8715 16.635 20.9735 16.2103 20.9511 15.7829C20.9286 15.3555 20.7825 14.9438 20.5307 14.5978L19.684 13.4344C19.3825 13.0171 19.2214 12.5148 19.224 12C19.2239 11.4866 19.3865 10.9864 19.6884 10.5711L20.5351 9.40778C20.787 9.06175 20.933 8.65007 20.9555 8.22267C20.978 7.79528 20.8759 7.37054 20.6618 7C20.4479 6.62923 20.131 6.32849 19.7496 6.13423C19.3681 5.93997 18.9386 5.86053 18.5129 5.90556L17.0829 6.05778C16.5722 6.11141 16.0577 6.00212 15.6129 5.74556C15.17 5.48825 14.82 5.09736 14.6129 4.62889L14.024 3.31444C13.8503 2.92317 13.5667 2.59072 13.2078 2.3574C12.8488 2.12408 12.4299 1.99993 12.0018 2C11.5737 1.99993 11.1547 2.12408 10.7958 2.3574C10.4368 2.59072 10.1533 2.92317 9.97955 3.31444L9.3951 4.62889C9.18803 5.09736 8.83798 5.48825 8.3951 5.74556C7.95032 6.00212 7.43577 6.11141 6.9251 6.05778L5.49066 5.90556C5.06499 5.86053 4.6354 5.93997 4.25397 6.13423C3.87255 6.32849 3.55567 6.62923 3.34177 7C3.12759 7.37054 3.02555 7.79528 3.04804 8.22267C3.07052 8.65007 3.21656 9.06175 3.46844 9.40778L4.3151 10.5711C4.61704 10.9864 4.77964 11.4866 4.77955 12C4.77964 12.5134 4.61704 13.0137 4.3151 13.4289L3.46844 14.5922C3.21656 14.9382 3.07052 15.3499 3.04804 15.7773C3.02555 16.2047 3.12759 16.6295 3.34177 17C3.55589 17.3706 3.8728 17.6712 4.25417 17.8654C4.63554 18.0596 5.06502 18.1392 5.49066 18.0944L6.92066 17.9422C7.43133 17.8886 7.94587 17.9979 8.39066 18.2544C8.83519 18.511 9.18687 18.902 9.3951 19.3711Z" stroke="currentColor" stroke-width="2" stroke-linecap="round" stroke-linejoin="round"></path><path d="M12 15C13.6568 15 15 13.6569 15 12C15 10.3431 13.6568 9 12 9C10.3431 9 8.99998 10.3431 8.99998 12C8.99998 13.6569 10.3431 15 12 15Z" stroke="currentColor" stroke-width="2" stroke-linecap="round" stroke-linejoin="round"></path></g></g></symbol><symbol viewBox="0 0 24 24" fill="none" xmlns="http://www.w3.org/2000/svg" id="star"><g id="star-01"><path id="Icon" d="M11.2827 3.45332C11.5131 2.98638 11.6284 2.75291 11.7848 2.67831C11.9209 2.61341 12.0791 2.61341 12.2152 2.67831C12.3717 2.75291 12.4869 2.98638 12.7174 3.45332L14.9041 7.88328C14.9721 8.02113 15.0061 8.09006 15.0558 8.14358C15.0999 8.19096 15.1527 8.22935 15.2113 8.25662C15.2776 8.28742 15.3536 8.29854 15.5057 8.32077L20.397 9.03571C20.9121 9.11099 21.1696 9.14863 21.2888 9.27444C21.3925 9.38389 21.4412 9.5343 21.4215 9.68377C21.3988 9.85558 21.2124 10.0372 20.8395 10.4004L17.3014 13.8464C17.1912 13.9538 17.136 14.0076 17.1004 14.0715C17.0689 14.128 17.0487 14.1902 17.0409 14.2545C17.0321 14.3271 17.0451 14.403 17.0711 14.5547L17.906 19.4221C17.994 19.9355 18.038 20.1922 17.9553 20.3445C17.8833 20.477 17.7554 20.57 17.6071 20.5975C17.4366 20.6291 17.2061 20.5078 16.7451 20.2654L12.3724 17.9658C12.2361 17.8942 12.168 17.8584 12.0962 17.8443C12.0327 17.8318 11.9673 17.8318 11.9038 17.8443C11.832 17.8584 11.7639 17.8942 11.6277 17.9658L7.25492 20.2654C6.79392 20.5078 6.56341 20.6291 6.39297 20.5975C6.24468 20.57 6.11672 20.477 6.04474 20.3445C5.962 20.1922 6.00603 19.9355 6.09407 19.4221L6.92889 14.5547C6.95491 14.403 6.96793 14.3271 6.95912 14.2545C6.95132 14.1902 6.93111 14.128 6.89961 14.0715C6.86402 14.0076 6.80888 13.9538 6.69859 13.8464L3.16056 10.4004C2.78766 10.0372 2.60121 9.85558 2.57853 9.68377C2.55879 9.5343 2.60755 9.38389 2.71125 9.27444C2.83044 9.14863 3.08797 9.11099 3.60304 9.03571L8.49431 8.32077C8.64642 8.29854 8.72248 8.28742 8.78872 8.25662C8.84736 8.22935 8.90016 8.19096 8.94419 8.14358C8.99391 8.09006 9.02793 8.02113 9.09597 7.88328L11.2827 3.45332Z" stroke="currentColor" stroke-width="2" stroke-linecap="round" stroke-linejoin="round"></path></g></symbol><symbol viewBox="0 0 24 24" fill="none" xmlns="http://www.w3.org/2000/svg" id="upload-cloud"><g id="upload-cloud-01"><path id="Icon" d="M4 16.2422C2.79401 15.435 2 14.0602 2 12.5C2 10.1564 3.79151 8.23129 6.07974 8.01937C6.54781 5.17213 9.02024 3 12 3C14.9798 3 17.4522 5.17213 17.9203 8.01937C20.2085 8.23129 22 10.1564 22 12.5C22 14.0602 21.206 15.435 20 16.2422M8 16L12 12M12 12L16 16M12 12V21" stroke="currentColor" stroke-width="2" stroke-linecap="round" stroke-linejoin="round"></path></g></symbol><symbol viewBox="0 0 24 24" fill="none" xmlns="http://www.w3.org/2000/svg" id="x-close"><g id="x-close"><path id="Icon" d="M18 6L6 18M6 6L18 18" stroke="currentColor" stroke-width="2" stroke-linecap="round" stroke-linejoin="round"></path></g></symbol><symbol viewBox="0 0 24 24" fill="none" xmlns="http://www.w3.org/2000/svg" id="users-plus"><g id="users-plus"><path id="Icon" d="M19 21V15M16 18H22M12 15H8C6.13623 15 5.20435 15 4.46927 15.3045C3.48915 15.7105 2.71046 16.4892 2.30448 17.4693C2 18.2044 2 19.1362 2 21M15.5 3.29076C16.9659 3.88415 18 5.32131 18 7C18 8.67869 16.9659 10.1159 15.5 10.7092M13.5 7C13.5 9.20914 11.7091 11 9.5 11C7.29086 11 5.5 9.20914 5.5 7C5.5 4.79086 7.29086 3 9.5 3C11.7091 3 13.5 4.79086 13.5 7Z" stroke="currentColor" stroke-width="2" stroke-linecap="round" stroke-linejoin="round"></path></g></symbol><symbol viewBox="0 0 24 24" fill="none" xmlns="http://www.w3.org/2000/svg" id="user"><path d="M20 21C20 19.6044 20 18.9067 19.8278 18.3389C19.44 17.0605 18.4395 16.06 17.1611 15.6722C16.5933 15.5 15.8956 15.5 14.5 15.5H9.5C8.10444 15.5 7.40665 15.5 6.83886 15.6722C5.56045 16.06 4.56004 17.0605 4.17224 18.3389C4 18.9067 4 19.6044 4 21M16.5 7.5C16.5 9.98528 14.4853 12 12 12C9.51472 12 7.5 9.98528 7.5 7.5C7.5 5.01472 9.51472 3 12 3C14.4853 3 16.5 5.01472 16.5 7.5Z" stroke="currentColor" stroke-width="2" stroke-linecap="round" stroke-linejoin="round"></path></symbol></svg>

<svg width="0" height="0"><symbol xmlns="http://www.w3.org/2000/svg" id="arrow-left" fill="none" viewBox="0 0 24 24"><g><path id="Icon" stroke="currentColor" stroke-linecap="round" stroke-linejoin="round" stroke-width="2" d="M19 12H5m0 0 7 7m-7-7 7-7"/></g></symbol><symbol xmlns="http://www.w3.org/2000/svg" id="attachment" fill="none" viewBox="0 0 24 24"><g id="attachment-02"><path stroke="currentColor" stroke-linecap="round" stroke-linejoin="round" stroke-width="2" d="M17.5 5.256V16.5a5.5 5.5 0 1 1-11 0V5.667a3.667 3.667 0 0 1 7.333 0v10.779a1.833 1.833 0 1 1-3.666 0V6.65"/></g></symbol><symbol xmlns="http://www.w3.org/2000/svg" id="clock" fill="none" viewBox="0 0 24 24"><g><path stroke="currentColor" stroke-linecap="round" stroke-linejoin="round" stroke-width="2" d="M12 6v6l4 2m6-2c0 5.523-4.477 10-10 10S2 17.523 2 12 6.477 2 12 2s10 4.477 10 10Z"/></g></symbol><symbol xmlns="http://www.w3.org/2000/svg" id="dots-vertical" fill="none" viewBox="0 0 24 24"><g><g stroke="currentColor" stroke-linecap="round" stroke-linejoin="round" stroke-width="2"><path d="M12 13a1 1 0 1 0 0-2 1 1 0 0 0 0 2Zm0-7a1 1 0 1 0 0-2 1 1 0 0 0 0 2Zm0 14a1 1 0 1 0 0-2 1 1 0 0 0 0 2Z"/></g></g></symbol><symbol xmlns="http://www.w3.org/2000/svg" id="folder-shield" fill="none" viewBox="0 0 24 24"><g><path stroke="currentColor" stroke-linecap="round" stroke-linejoin="round" stroke-width="2" d="m13 7-1.116-2.231c-.32-.642-.481-.963-.72-1.198a2 2 0 0 0-.748-.462C10.1 3 9.74 3 9.022 3H5.2c-1.12 0-1.68 0-2.108.218a2 2 0 0 0-.874.874C2 4.52 2 5.08 2 6.2V7m0 0h15.2c1.68 0 2.52 0 3.162.327a3 3 0 0 1 1.311 1.311C22 9.28 22 10.12 22 11.8v4.4c0 1.68 0 2.52-.327 3.162a3 3 0 0 1-1.311 1.311C19.72 21 18.88 21 17.2 21H6.8c-1.68 0-2.52 0-3.162-.327a3 3 0 0 1-1.311-1.311C2 18.72 2 17.88 2 16.2V7Zm10 10.5s3-1.43 3-3.575v-2.502l-2.188-.782a2.41 2.41 0 0 0-1.626 0L9 11.423v2.502c0 2.145 3 3.575 3 3.575Z"/></g></symbol><symbol xmlns="http://www.w3.org/2000/svg" id="layers-two" fill="none" viewBox="0 0 24 24"><g id="layers-two-01"><path stroke="currentColor" stroke-linecap="round" stroke-linejoin="round" stroke-width="2" d="m2 14.5 9.642 4.821c.131.066.197.099.266.111.06.012.123.012.184 0 .069-.012.135-.045.266-.11L22 14.5m-20-5 9.642-4.821c.131-.066.197-.098.266-.111a.5.5 0 0 1 .184 0c.069.013.135.045.266.111L22 9.5l-9.642 4.821a1.028 1.028 0 0 1-.266.111.501.501 0 0 1-.184 0c-.069-.012-.135-.045-.266-.11L2 9.5Z"/></g></symbol><symbol xmlns="http://www.w3.org/2000/svg" id="log-out" fill="none" viewBox="0 0 24 24"><g id="log-out-01"><path stroke="currentColor" stroke-linecap="round" stroke-linejoin="round" stroke-width="2" d="m16 17 5-5m0 0-5-5m5 5H9m0-9H7.8c-1.68 0-2.52 0-3.162.327a3 3 0 0 0-1.311 1.311C3 5.28 3 6.12 3 7.8v8.4c0 1.68 0 2.52.327 3.162a3 3 0 0 0 1.311 1.311C5.28 21 6.12 21 7.8 21H9"/></g></symbol><symbol xmlns="http://www.w3.org/2000/svg" id="mail" fill="none" viewBox="0 0 24 24"><g id="mail-01"><path stroke="currentColor" stroke-linecap="round" stroke-linejoin="round" stroke-width="2" d="m2 7 8.165 5.715c.661.463.992.695 1.351.784a2 2 0 0 0 .968 0c.36-.09.69-.32 1.351-.784L22 7M6.8 20h10.4c1.68 0 2.52 0 3.162-.327a3 3 0 0 0 1.311-1.311C22 17.72 22 16.88 22 15.2V8.8c0-1.68 0-2.52-.327-3.162a3 3 0 0 0-1.311-1.311C19.72 4 18.88 4 17.2 4H6.8c-1.68 0-2.52 0-3.162.327a3 3 0 0 0-1.311 1.311C2 6.28 2 7.12 2 8.8v6.4c0 1.68 0 2.52.327 3.162a3 3 0 0 0 1.311 1.311C4.28 20 5.12 20 6.8 20Z"/></g></symbol><symbol xmlns="http://www.w3.org/2000/svg" id="menu" fill="none" viewBox="0 0 24 24"><g id="menu-02"><path stroke="currentColor" stroke-linecap="round" stroke-linejoin="round" stroke-width="2" d="M3 12h12M3 6h18M3 18h18"/></g></symbol><symbol xmlns="http://www.w3.org/2000/svg" id="plus-circle" fill="none" viewBox="0 0 24 24"><g><path stroke="currentColor" stroke-linecap="round" stroke-linejoin="round" stroke-width="2" d="M12 8v8m-4-4h8m6 0c0 5.523-4.477 10-10 10S2 17.523 2 12 6.477 2 12 2s10 4.477 10 10Z"/></g></symbol><symbol xmlns="http://www.w3.org/2000/svg" id="plus-square" fill="none" viewBox="0 0 24 24"><g><path stroke="currentColor" stroke-linecap="round" stroke-linejoin="round" stroke-width="2" d="M12 8v8m-4-4h8m-8.2 9h8.4c1.68 0 2.52 0 3.162-.327a3 3 0 0 0 1.311-1.311C21 18.72 21 17.88 21 16.2V7.8c0-1.68 0-2.52-.327-3.162a3 3 0 0 0-1.311-1.311C18.72 3 17.88 3 16.2 3H7.8c-1.68 0-2.52 0-3.162.327a3 3 0 0 0-1.311 1.311C3 5.28 3 6.12 3 7.8v8.4c0 1.68 0 2.52.327 3.162a3 3 0 0 0 1.311 1.311C5.28 21 6.12 21 7.8 21Z"/></g></symbol><symbol xmlns="http://www.w3.org/2000/svg" id="plus" fill="none" viewBox="0 0 24 24"><g><path stroke="currentColor" stroke-linecap="round" stroke-linejoin="round" stroke-width="2" d="M12 5v14m-7-7h14"/></g></symbol><symbol xmlns="http://www.w3.org/2000/svg" id="search-lg" fill="none" viewBox="0 0 24 24"><g><path stroke="currentColor" stroke-linecap="round" stroke-linejoin="round" stroke-width="2" d="m21 21-3.5-3.5m2.5-6a8.5 8.5 0 1 1-17 0 8.5 8.5 0 0 1 17 0Z"/></g></symbol><symbol xmlns="http://www.w3.org/2000/svg" id="search" fill="none" viewBox="0 0 24 24"><path stroke="currentColor" stroke-linecap="round" stroke-linejoin="round" stroke-width="2" d="m21 21-6-6m2-5a7 7 0 1 1-14 0 7 7 0 0 1 14 0Z"/></symbol><symbol xmlns="http://www.w3.org/2000/svg" id="settings" fill="none" viewBox="0 0 24 24"><g id="settings-02"><g stroke="currentColor" stroke-linecap="round" stroke-linejoin="round" stroke-width="2"><path d="m9.395 19.371.585 1.315a2.212 2.212 0 0 0 4.044 0l.584-1.315a2.426 2.426 0 0 1 2.47-1.423l1.43.152a2.212 2.212 0 0 0 2.023-3.502l-.847-1.164a2.428 2.428 0 0 1-.46-1.434c0-.513.163-1.014.464-1.429l.847-1.163a2.211 2.211 0 0 0-2.022-3.502l-1.43.152a2.433 2.433 0 0 1-1.47-.312 2.426 2.426 0 0 1-1-1.117l-.589-1.315a2.212 2.212 0 0 0-4.044 0L9.395 4.63c-.207.468-.557.86-1 1.117-.445.256-.96.365-1.47.312l-1.434-.152a2.212 2.212 0 0 0-2.023 3.502l.847 1.163a2.43 2.43 0 0 1 0 2.858l-.847 1.163a2.21 2.21 0 0 0 .786 3.273c.382.195.811.274 1.237.23l1.43-.153a2.434 2.434 0 0 1 2.474 1.43Z"/><path d="M12 15a3 3 0 1 0 0-6 3 3 0 0 0 0 6Z"/></g></g></symbol><symbol xmlns="http://www.w3.org/2000/svg" id="star" fill="none" viewBox="0 0 24 24"><g id="star-01"><path stroke="currentColor" stroke-linecap="round" stroke-linejoin="round" stroke-width="2" d="M11.283 3.453c.23-.467.345-.7.502-.775a.5.5 0 0 1 .43 0c.157.075.272.308.502.775l2.187 4.43c.068.138.102.207.152.26a.502.502 0 0 0 .155.114c.067.03.143.042.295.064l4.891.715c.515.075.773.113.892.238a.5.5 0 0 1 .133.41c-.023.172-.21.353-.582.716l-3.54 3.446c-.11.108-.165.162-.2.226a.5.5 0 0 0-.06.183c-.009.072.004.148.03.3l.835 4.867c.088.514.132.77.05.922a.5.5 0 0 1-.349.253c-.17.032-.4-.09-.862-.332l-4.373-2.3c-.136-.07-.204-.107-.276-.12a.498.498 0 0 0-.192 0c-.072.013-.14.05-.276.12l-4.373 2.3c-.461.243-.692.364-.862.332a.5.5 0 0 1-.348-.253c-.083-.152-.039-.409.05-.922l.834-4.867c.026-.152.039-.228.03-.3a.5.5 0 0 0-.06-.184c-.035-.063-.09-.117-.2-.225L3.16 10.4c-.373-.363-.56-.544-.582-.716a.5.5 0 0 1 .132-.41c.12-.125.377-.163.892-.238l4.891-.715c.152-.022.228-.034.295-.064a.5.5 0 0 0 .155-.113c.05-.054.084-.123.152-.26l2.187-4.43Z"/></g></symbol><symbol xmlns="http://www.w3.org/2000/svg" id="upload-cloud" fill="none" viewBox="0 0 24 24"><g id="upload-cloud-01"><path stroke="currentColor" stroke-linecap="round" stroke-linejoin="round" stroke-width="2" d="M4 16.242A4.5 4.5 0 0 1 6.08 8.02a6.002 6.002 0 0 1 11.84 0A4.5 4.5 0 0 1 20 16.242M8 16l4-4m0 0 4 4m-4-4v9"/></g></symbol><symbol xmlns="http://www.w3.org/2000/svg" id="x-close" fill="none" viewBox="0 0 24 24"><g><path stroke="currentColor" stroke-linecap="round" stroke-linejoin="round" stroke-width="2" d="M18 6 6 18M6 6l12 12"/></g></symbol></svg>
